X:1
T:Title
%%score { 1 | 2 }
L:1/8
M:2/2
K:F
V:1 treble nm="Grand Piano"
V:2 bass 
V:1
 z4 z2[Q:1/4=110] FG | A2 A2 A2 A2 | c4 A2 FA | [EG]2 [EG]2 F2 E2 | F6 EF | %5
 [EG]2 [EG]2 [CF]2 [EG]2 | [FA]2 [FA]4 [EG][FA] | [GB]2 [GB]2 [FA]2 [EG]2 |[M:2/4] A4 | A2 B2 | %10
[M:4/4] c3 c c4 | B3 B B4 | A3 A [Ac]2 [FA]2 | [FA]4 [EG]2 [EG]2 | A4 d2 z2 | c4 G2 z2 | %16
 =B2 B2 A2 B2 | [Ec]4 A2 B2 | c3 c c4 | B3 B B4 | A3 A [Ac]2 [FA]2 | %21
[M:9/8] [FA]3- [FA] [EG]2- [EG]CC |[M:4/4] F2 A2 [EG]2 [GB]2 | [FA]2 [Fc]2 [FB]2 [Fd]2 | %24
 [Fc]3 [FB] [FA]2 [EG]2 |[M:3/4] [A,CF]6 |] %26
V:2
 z4 z2 [F,A,C][F,B,C] | [F,CF]2 [F,CF]2 [F,CF]2 [F,CF]2 | [F,A,F]4 [F,CF]2 [F,A,C][F,CF] | %3
 [C,B,]2 [C,B,]2 [C,A,C]2 [C,G,C]2 | [F,A,C]6 [C,G,C][C,A,C] | [C,B,]2 [C,B,]2 [C,A,]2 [C,C]2 | %6
 [F,C]2 [F,C]4 [C,C][C,C] | [C,C]2 [C,C]2 [C,C]2 [C,C]2 |[M:2/4][K:treble] [F,CF]4 | %9
 [F,CF]2 [G,CE]2 |[M:4/4] [A,CF]3 [A,CF] [A,CF]4 | [G,CE]3 [G,CE] [G,CE]4 | %12
 [F,CF]3 [F,CF] [F,C]2 [F,C]2 | [C,C]4 [C,C]2 [C,C]2 | [F,CF]4 [F,A,F]2 z2 | [G,E]4 [G,CE]2 z2 | %16
 [G,DF]2 [G,DF]2 [G,DF]2 [G,DF]2 | [C,C]4 [F,CF]2[K:treble] [G,CE]2 | [A,CF]3 [A,CF] [A,CF]4 | %19
 [G,CE]3[K:bass] [G,CE] [G,CE]4 | [F,CF]3 [F,CF] [F,C]2 [F,C]2 | %21
[M:9/8] [C,C]3- [C,C] [C,C]2- [C,C][E,B,][E,B,] |[M:4/4] [F,A,C]2 [F,CF]2 [C,C]2 [C,C]2 | %23
 [F,C]2 [_E,A,]2 [D,B,]2 [B,,B,]2 | [C,A,]3 [C,C] [C,C]2 [C,B,]2 |[M:3/4] [F,,F,]6 |] %26

